sequoia/src/pages/Main/Roadmap/assets/radio-active.svg

<svg width="44" height="44" viewBox="0 0 44 44" fill="none" xmlns="http://www.w3.org/2000/svg">
<circle cx="22" cy="22" r="19" fill="url(#paint0_linear_519_25658)" stroke="#161315" stroke-width="6"/>
<path fill-rule="evenodd" clip-rule="evenodd" d="M31.3834 15.6276C32.2055 16.4645 32.2055 17.8212 31.3834 18.6581L20.8571 29.3724C20.0349 30.2092 18.7019 30.2092 17.8798 29.3724L12.6166 24.0152C11.7945 23.1784 11.7945 21.8216 12.6166 20.9848C13.4388 20.1479 14.7718 20.1479 15.5939 20.9848L19.3684 24.8267L28.4061 15.6276C29.2282 14.7908 30.5612 14.7908 31.3834 15.6276Z" fill="white"/>
<defs>
<linearGradient id="paint0_linear_519_25658" x1="22" y1="6" x2="29" y2="38" gradientUnits="userSpaceOnUse">
<stop stop-color="#20A2BF"/>
<stop offset="1" stop-color="#B119E6"/>
</linearGradient>
</defs>
</svg>

<svg width="44" height="44" fill="none" xmlns="http://www.w3.org/2000/svg"><circle cx="22" cy="22" r="19" fill="url(#a)" stroke="#161315" stroke-width="6"/><path fill-rule="evenodd" clip-rule="evenodd" d="M31.38 15.63c.83.83.83 2.2 0 3.03L20.86 29.37c-.83.84-2.16.84-2.98 0l-5.26-5.35a2.17 2.17 0 0 1 0-3.04 2.08 2.08 0 0 1 2.97 0l3.78 3.85 9.04-9.2a2.08 2.08 0 0 1 2.97 0Z" fill="#fff"/><defs><linearGradient id="a" x1="22" y1="6" x2="29" y2="38" gradientUnits="userSpaceOnUse"><stop stop-color="#20A2BF"/><stop offset="1" stop-color="#B119E6"/></linearGradient></defs></svg>
